X:2
M:C
L:1/8
K:HP
%%staffsep 1.25in
P:Taorluah, Taorluah a Mach, Crunluath, Crunluath a Mach
{g}!fmt!!taor!!taorm!!crun!!crunm!A2 {g}!taor!!taorm!!crun!!crunm!e2 {g}!taor!!taorm!!crun!!crunm!c2 {g}!fmt!!taor!!taorm!!crun!!crunm!B2 | \
{g}!fmt!!taor!!taorm!!crun!!crunm!A2 {g}!taor!!taorm!!crun!!crunm!e2 {g}!taor!!taorm!!crun!!crunm!c2 {g}!fmt!!taor!!taorm!!crun!!crunm!B2 | \
{g}!fmt!!taor!!taorm!!crun!!crunm!A2 {g}!taor!!taorm!!crun!!crunm!e2 {g}!taor!!taorm!!crun!!crunm!c2 {g}!fmt!!taor!!taorm!!crun!!crunm!B2 | \
{g}!fmt!!taor!!taorm!!crun!!crunm!A2 {g}!taor!!taorm!!crun!!crunm!e2 {g}!taor!!taorm!!crun!!crunm!c2 {g}!fmt!!taor!!taorm!!crun!!crunm!B2 :|
{g}!fmt!!taor!!taorm!!crun!!crunm!A2 {g}!taor!!taorm!!crun!!crunm!f2 {g}!taor!!taorm!!crun!!crunm!c2 {g}!fmt!!taor!!taorm!!crun!!crunm!B2 | \
{g}!fmt!!taor!!taorm!!crun!!crunm!A2 {g}!taor!!taorm!!crun!!crunm!e2 {g}!taor!!taorm!!crun!!crunm!c2 {g}!fmt!!taor!!taorm!!crun!!crunm!B2 | \
{g}!fmt!!taor!!taorm!!crun!!crunm!A2 {g}!taor!!taorm!!crun!!crunm!f2 {g}!taor!!taorm!!crun!!crunm!c2 {g}!fmt!!taor!!taorm!!crun!!crunm!B2 | \
{g}!fmt!!taor!!taorm!!crun!!crunm!A2 {g}!taor!!taorm!!crun!!crunm!e2 {g}!taor!!taorm!!crun!!crunm!c2 {g}!fmt!!taor!!taorm!!crun!!crunm!B2 ||
{g}!fmt!!taor!!taorm!!crun!!crunm!A2 {g}!taor!!taorm!!crun!!crunm!f2 {g}!taor!!taorm!!crun!!crunm!c2 {g}!fmt!!taor!!taorm!!crun!!crunm!B2 | \
{g}!fmt!!taor!!taorm!!crun!!crunm!A2 {g}!taor!!taorm!!crun!!crunm!e2 {g}!taor!!taorm!!crun!!crunm!c2 {g}!fmt!!taor!!taorm!!crun!!crunm!B2 | \
{g}!fmt!!taor!!taorm!!crun!!crunm!A2 {g}!taor!!taorm!!crun!!crunm!c2 {g}!taor!!taorm!!crun!!crunm!c2 {g}!fmt!!taor!!taorm!!crun!!crunm!B2 | \
{g}!fmt!!taor!!taorm!!crun!!crunm!A2 {g}!taor!!taorm!!crun!!crunm!e2 {g}!taor!!taorm!!crun!!crunm!c2 {g}!fmt!!taor!!taorm!!crun!!crunm!A2 ||


%%staffwidth 5.5in
%%sysstaffsep 0.75in
